src/bell.svg

<svg viewBox="0 0 16 16" fill="none" xmlns="http://www.w3.org/2000/svg"><path d="M7 3C7 2.44772 7.44772 2 8 2C8.55228 2 9 2.44772 9 3C9 3.55228 8.55228 4 8 4C7.44772 4 7 3.55228 7 3Z" fill="#111111"/><path fill-rule="evenodd" clip-rule="evenodd" d="M2.31956 12C2.14231 12.6084 2 13 2 13H14C14 13 13.8577 12.6084 13.6804 12C13.3878 10.9956 13 9.40021 13 8C13 5.23858 11.3137 3 8 3C4.6863 3 3 5.23858 3 8C3 9.40021 2.61217 10.9956 2.31956 12ZM3.35923 12H12.6408C12.6049 11.8709 12.5683 11.7348 12.5317 11.593C12.2743 10.5952 12 9.24961 12 8C12 6.81773 11.6403 5.82747 11.0081 5.14299C10.3877 4.47143 9.41892 4 8 4C6.58108 4 5.61226 4.47143 4.99193 5.143C4.35968 5.82747 4 6.81774 4 8C4 9.24961 3.72571 10.5952 3.46829 11.593C3.43169 11.7348 3.39511 11.8709 3.35923 12Z" fill="#111111"/><path d="M6 13C6 14.1046 6.89543 15 8 15C9.10457 15 10 14.1046 10 13H9C9 13.5523 8.55228 14 8 14C7.44772 14 7 13.5523 7 13H6.5H6Z" fill="#111111"/></svg>

<svg viewBox="0 0 16 16" fill="none" xmlns="http://www.w3.org/2000/svg"><path d="M7 3a1 1 0 1 1 2 0 1 1 0 0 1-2 0Z" fill="#111111"/><path fill-rule="evenodd" clip-rule="evenodd" d="M2.32 12c-.178.608-.32 1-.32 1h12s-.142-.392-.32-1c-.292-1.004-.68-2.6-.68-4 0-2.761-1.686-5-5-5S3 5.239 3 8c0 1.4-.388 2.996-.68 4Zm1.04 0h9.28c-.035-.13-.072-.265-.108-.407C12.274 10.595 12 9.25 12 8c0-1.182-.36-2.173-.992-2.857C10.388 4.471 9.418 4 8 4c-1.419 0-2.388.471-3.008 1.143C4.36 5.827 4 6.818 4 8c0 1.25-.274 2.595-.532 3.593-.036.142-.073.278-.109.407Z" fill="#111111"/><path d="M6 13a2 2 0 1 0 4 0H9a1 1 0 1 1-2 0H6Z" fill="#111111"/></svg>
